X: 28
M:C|
L:1/8
K:Bb
uB|vFBEB DBFB|DdcB cCCB|FBEB DBFB|DdcA BB,B,B|\
uB|vfBdB fBdB|cF"4"AF cF"4"AF|fBdB fBdB|FdcA BB,B,B|\
fBdB fBdB|cF"4"AF cF"4"AF|fBgB aBbB|dBcA BB,B,|]


